X:1
T:James Gibb editions
T:Pascomi sol di pianto - Antonelli da Rimini
%%score [ 1 2 3 ]
L:1/8
Q:1/4=90
M:2/2
K:C
V:1 treble-8 nm="Tenor I" snm="T I"
V:2 treble-8 nm="Tenor II" snm="T II"
V:3 bass nm="Bass" snm="B"
V:1
"^Pascomi sol di pianto""^Cornelio Antonelli da Rimini\n(C16th)" z2 (e2 e2) e2 | e2 e2 f4 | %2
w: Pas- co- mi|sol di pian-|
w: ||
w: Tut\- * te|son fiam- me|
 e4 z2 d2 | d3 d e2 e2 | c3 c d3 c | B4 ^c4 ::[M:2/2][K:treble-8] z2 e2 e4- | e2 d2 d4- | %8
w: to, pas-|co- mi sol di|piant' e viv' in|pe- ne|Da poi,|* da poi|
w: ||||||
w: li miei|pol- si~~e ve- ne,|li miei pol- si~~e|ve- ne|Mor- te,|* mor- te|
 d2 d2 c2 c2 | B4 e2 f2- | f2 e2 d4 | e4 z2 e2 | e2 e2 d2 d2 | e2 c2 c3 c | d3 d B4 | c2 d4 c2 | %16
w: * che mi li-|gas- t'in stret\-|* ti no-|di. *|||||
w: |||* E|sen- to den- tr'al|cor, e sen- to|den- tr'al cor|mar- tell' e|
w: * pur mi tor-|men- ta~in va\-|* rii mo-|di. *|||||
 B4 !fermata!^c4 :| %17
w: |
w: chio- di.|
w: |
V:2
 z2 (c2 c2) c2 | c2 c2 d4 | ^c4 z2 B2 | B3 B c2 c2 | A3 A A2 A2 | (A2 ^G2) A4 :: %6
w: Pas- co- mi|sol di pian-|to, pas-|co- mi sol di|plant' e viv' in|pe\- * ne|
w: ||||||
w: Tut\- * te|son fiam- me|li miei|pol- si~~e ve- ne,|li miei poi- si~~e|ve\- * ne|
[M:2/2][K:treble-8] z2 c2 c4- | c2 B2 B4- | B2 B2 A2 A2 | G4 G2 (A2- | AB) c2 (G2 B2) | c4 z2 c2 | %12
w: Da poi,|* da poi|* che mi li-|gas- t'in stret\-|* * ti no\- *|di. *|
w: |||||* E|
w: Mor- te,|* mor- te|* pur mi tor-|men- ta~in va\-|* * rii mo\- *|di. *|
 c2 c2 B2 B2 | c2 A2 A3 A | A3 A ^G4 | A2 B4 A2 | (A2 ^G2) !fermata!A4 :| %17
w: |||||
w: sen- to den- tr'al|cor, e sen- to|den- tr'al cor|mar- tell' e|chio\- * di.|
w: |||||
V:3
 z2 (A,2 A,2) A,2 | A,2 A,2 D,4 | A,4 z2 G,2 | G,3 G, C,2 C,2 | F,3 E, D,2 D,2 | E,4 A,,4 :: %6
w: Pas- co- mi|sol di pian-|to, pas-|co- mi sol di|piant' e viv' in|pe- ne|
w: ||||||
w: Tut\- * te|son fiam- me|li miei|pol- si~~e ve- ne,|li miei pol- si~~e|ve- ne|
[M:2/2] z2 C,2 C,4- | C,2 G,2 G,4- | G,2 A,,2 A,,2 A,,2 | E,4 E,2 D,2- | D,2 C,2 G,,4 | %11
w: Da poi,|* da poi|* che mi li-|gas- t'in stret\-|* ti no-|
w: |||||
w: Mor- te,|* mor- te|* pur mi tor-|men- ta~in va\-|* rii mo-|
 C,4 z2 C,2 | C,2 C,2 G,2 G,2 | C,2 F,2 F,3 F, | D,3 D, E,4 | A,,2 G,,4 A,,2 | E,4 !fermata!A,,4 :| %17
w: di. *||||||
w: * E|sen- to den- tr'al|cor, e sen- to|den- tr'al cor|mar- tell' e|chio- di.|
w: di. *||||||

